avogadro/qtplugins/templatetool/centers/4-sqp.svg

<svg xmlns="http://www.w3.org/2000/svg" xmlns:xlink="http://www.w3.org/1999/xlink" width="33" height="19" viewBox="0 0 33 19" style="background-color:#ffffff00" version="1.1"><path fill="#000" stroke="none" d="M 3956.84,2849.93 L 3931.84,2795.38 L 4215.46,2692.01 L 4215.36,2705.32 L 3956.84,2849.93 Z" transform="matrix(0.05 0 0 0.05 -194 -126)"/><path fill="#000" stroke="none" d="M 3956.22,2625.68 L 3978.77,2570.08 L 3989.42,2575.83 L 3967.87,2628.98 L 3956.22,2625.68 Z" transform="matrix(0.05 0 0 0.05 -194 -126)"/><path fill="#000" stroke="none" d="M 4005.94,2639.73 L 4024.23,2594.63 L 4034.88,2600.38 L 4017.59,2643.02 L 4005.94,2639.73 Z" transform="matrix(0.05 0 0 0.05 -194 -126)"/><path fill="#000" stroke="none" d="M 4055.65,2653.78 L 4069.69,2619.17 L 4080.34,2624.92 L 4067.3,2657.07 L 4055.65,2653.78 Z" transform="matrix(0.05 0 0 0.05 -194 -126)"/><path fill="#000" stroke="none" d="M 4105.37,2667.82 L 4115.14,2643.71 L 4125.8,2649.47 L 4117.02,2671.11 L 4105.37,2667.82 Z" transform="matrix(0.05 0 0 0.05 -194 -126)"/><path fill="#000" stroke="none" d="M 4155.08,2681.87 L 4160.6,2668.26 L 4171.25,2674.01 L 4166.73,2685.16 L 4155.08,2681.87 Z" transform="matrix(0.05 0 0 0.05 -194 -126)"/><path fill="#000" stroke="none" d="M 4452.08,2570.08 L 4474.62,2625.68 L 4462.97,2628.98 L 4441.43,2575.83 L 4452.08,2570.08 Z" transform="matrix(0.05 0 0 0.05 -194 -126)"/><path fill="#000" stroke="none" d="M 4406.62,2594.63 L 4424.91,2639.73 L 4413.26,2643.02 L 4395.97,2600.38 L 4406.62,2594.63 Z" transform="matrix(0.05 0 0 0.05 -194 -126)"/><path fill="#000" stroke="none" d="M 4361.16,2619.17 L 4375.19,2653.78 L 4363.54,2657.07 L 4350.51,2624.92 L 4361.16,2619.17 Z" transform="matrix(0.05 0 0 0.05 -194 -126)"/><path fill="#000" stroke="none" d="M 4315.7,2643.71 L 4325.47,2667.82 L 4313.83,2671.11 L 4305.05,2649.47 L 4315.7,2643.71 Z" transform="matrix(0.05 0 0 0.05 -194 -126)"/><path fill="#000" stroke="none" d="M 4270.24,2668.26 L 4275.76,2681.87 L 4264.11,2685.16 L 4259.59,2674.01 L 4270.24,2668.26 Z" transform="matrix(0.05 0 0 0.05 -194 -126)"/><path fill="#000" stroke="none" d="M 4488.15,2795.59 L 4462.26,2849.72 L 4215.36,2705.32 L 4215.46,2692.01 L 4488.15,2795.59 Z" transform="matrix(0.05 0 0 0.05 -194 -126)"/><path fill="#108080" stroke="none" d="M 4085.84,2698.41 A 129.586,129.586 0 1 0 4345.01,2698.41A 129.586,129.586 0 1 0 4085.84,2698.41Z" transform="matrix(0.05 0 0 0.05 -194 -126)"/><path fill="#1e8787" stroke="none" d="M 4087.34,2696.38 A 126.059,126.059 0 1 0 4339.46,2696.38A 126.059,126.059 0 1 0 4087.34,2696.38Z" transform="matrix(0.05 0 0 0.05 -194 -126)"/><path fill="#2c8f8f" stroke="none" d="M 4088.84,2694.36 A 122.531,122.531 0 1 0 4333.9,2694.36A 122.531,122.531 0 1 0 4088.84,2694.36Z" transform="matrix(0.05 0 0 0.05 -194 -126)"/><path fill="#3a9696" stroke="none" d="M 4090.34,2692.34 A 119.004,119.004 0 1 0 4328.35,2692.34A 119.004,119.004 0 1 0 4090.34,2692.34Z" transform="matrix(0.05 0 0 0.05 -194 -126)"/><path fill="#489d9d" stroke="none" d="M 4091.85,2690.31 A 115.477,115.477 0 1 0 4322.8,2690.31A 115.477,115.477 0 1 0 4091.85,2690.31Z" transform="matrix(0.05 0 0 0.05 -194 -126)"/><path fill="#54a4a4" stroke="none" d="M 4093.35,2688.29 A 111.949,111.949 0 1 0 4317.25,2688.29A 111.949,111.949 0 1 0 4093.35,2688.29Z" transform="matrix(0.05 0 0 0.05 -194 -126)"/><path fill="#61abab" stroke="none" d="M 4094.85,2686.26 A 108.422,108.422 0 1 0 4311.7,2686.26A 108.422,108.422 0 1 0 4094.85,2686.26Z" transform="matrix(0.05 0 0 0.05 -194 -126)"/><path fill="#6db1b1" stroke="none" d="M 4096.35,2684.24 A 104.895,104.895 0 1 0 4306.14,2684.24A 104.895,104.895 0 1 0 4096.35,2684.24Z" transform="matrix(0.05 0 0 0.05 -194 -126)"/><path fill="#78b7b7" stroke="none" d="M 4097.86,2682.21 A 101.367,101.367 0 1 0 4300.59,2682.21A 101.367,101.367 0 1 0 4097.86,2682.21Z" transform="matrix(0.05 0 0 0.05 -194 -126)"/><path fill="#83bdbd" stroke="none" d="M 4099.36,2680.19 A 97.8398,97.8398 0 1 0 4295.04,2680.19A 97.8398,97.8398 0 1 0 4099.36,2680.19Z" transform="matrix(0.05 0 0 0.05 -194 -126)"/><path fill="#8ec2c2" stroke="none" d="M 4100.86,2678.16 A 94.3125,94.3125 0 1 0 4289.49,2678.16A 94.3125,94.3125 0 1 0 4100.86,2678.16Z" transform="matrix(0.05 0 0 0.05 -194 -126)"/><path fill="#98c8c8" stroke="none" d="M 4102.36,2676.14 A 90.7852,90.7852 0 1 0 4283.93,2676.14A 90.7852,90.7852 0 1 0 4102.36,2676.14Z" transform="matrix(0.05 0 0 0.05 -194 -126)"/><path fill="#a1cdcd" stroke="none" d="M 4103.87,2674.11 A 87.2578,87.2578 0 1 0 4278.38,2674.11A 87.2578,87.2578 0 1 0 4103.87,2674.11Z" transform="matrix(0.05 0 0 0.05 -194 -126)"/><path fill="#aad2d2" stroke="none" d="M 4105.37,2672.09 A 83.7305,83.7305 0 1 0 4272.83,2672.09A 83.7305,83.7305 0 1 0 4105.37,2672.09Z" transform="matrix(0.05 0 0 0.05 -194 -126)"/><path fill="#b3d6d6" stroke="none" d="M 4106.87,2670.06 A 80.2031,80.2031 0 1 0 4267.28,2670.06A 80.2031,80.2031 0 1 0 4106.87,2670.06Z" transform="matrix(0.05 0 0 0.05 -194 -126)"/><path fill="#bbdbdb" stroke="none" d="M 4108.37,2668.04 A 76.6758,76.6758 0 1 0 4261.73,2668.04A 76.6758,76.6758 0 1 0 4108.37,2668.04Z" transform="matrix(0.05 0 0 0.05 -194 -126)"/><path fill="#c3dfdf" stroke="none" d="M 4109.88,2666.01 A 73.1484,73.1484 0 1 0 4256.17,2666.01A 73.1484,73.1484 0 1 0 4109.88,2666.01Z" transform="matrix(0.05 0 0 0.05 -194 -126)"/><path fill="#cae3e3" stroke="none" d="M 4111.38,2663.99 A 69.6211,69.6211 0 1 0 4250.62,2663.99A 69.6211,69.6211 0 1 0 4111.38,2663.99Z" transform="matrix(0.05 0 0 0.05 -194 -126)"/><path fill="#d1e6e6" stroke="none" d="M 4112.88,2661.96 A 66.0938,66.0938 0 1 0 4245.07,2661.96A 66.0938,66.0938 0 1 0 4112.88,2661.96Z" transform="matrix(0.05 0 0 0.05 -194 -126)"/><path fill="#d7eaea" stroke="none" d="M 4114.38,2659.94 A 62.5664,62.5664 0 1 0 4239.52,2659.94A 62.5664,62.5664 0 1 0 4114.38,2659.94Z" transform="matrix(0.05 0 0 0.05 -194 -126)"/><path fill="#ddeded" stroke="none" d="M 4115.89,2657.91 A 59.0391,59.0391 0 1 0 4233.97,2657.91A 59.0391,59.0391 0 1 0 4115.89,2657.91Z" transform="matrix(0.05 0 0 0.05 -194 -126)"/><path fill="#e2efef" stroke="none" d="M 4117.39,2655.89 A 55.5117,55.5117 0 1 0 4228.41,2655.89A 55.5117,55.5117 0 1 0 4117.39,2655.89Z" transform="matrix(0.05 0 0 0.05 -194 -126)"/><path fill="#e7f2f2" stroke="none" d="M 4118.89,2653.86 A 51.9844,51.9844 0 1 0 4222.86,2653.86A 51.9844,51.9844 0 1 0 4118.89,2653.86Z" transform="matrix(0.05 0 0 0.05 -194 -126)"/><path fill="#ecf4f4" stroke="none" d="M 4120.39,2651.84 A 48.457,48.457 0 1 0 4217.31,2651.84A 48.457,48.457 0 1 0 4120.39,2651.84Z" transform="matrix(0.05 0 0 0.05 -194 -126)"/><path fill="#f0f7f7" stroke="none" d="M 4121.9,2649.81 A 44.9297,44.9297 0 1 0 4211.76,2649.81A 44.9297,44.9297 0 1 0 4121.9,2649.81Z" transform="matrix(0.05 0 0 0.05 -194 -126)"/><path fill="#f3f8f8" stroke="none" d="M 4123.4,2647.79 A 41.4023,41.4023 0 1 0 4206.2,2647.79A 41.4023,41.4023 0 1 0 4123.4,2647.79Z" transform="matrix(0.05 0 0 0.05 -194 -126)"/><path fill="#f6fafa" stroke="none" d="M 4124.9,2645.77 A 37.875,37.875 0 1 0 4200.65,2645.77A 37.875,37.875 0 1 0 4124.9,2645.77Z" transform="matrix(0.05 0 0 0.05 -194 -126)"/><path fill="#f9fbfb" stroke="none" d="M 4126.41,2643.74 A 34.3477,34.3477 0 1 0 4195.1,2643.74A 34.3477,34.3477 0 1 0 4126.41,2643.74Z" transform="matrix(0.05 0 0 0.05 -194 -126)"/><path fill="#fbfdfd" stroke="none" d="M 4127.91,2641.72 A 30.8203,30.8203 0 1 0 4189.55,2641.72A 30.8203,30.8203 0 1 0 4127.91,2641.72Z" transform="matrix(0.05 0 0 0.05 -194 -126)"/><path fill="#fcfdfd" stroke="none" d="M 4129.41,2639.69 A 27.293,27.293 0 1 0 4184,2639.69A 27.293,27.293 0 1 0 4129.41,2639.69Z" transform="matrix(0.05 0 0 0.05 -194 -126)"/><path fill="#fefefe" stroke="none" d="M 4130.91,2637.67 A 23.7656,23.7656 0 1 0 4178.44,2637.67A 23.7656,23.7656 0 1 0 4130.91,2637.67Z" transform="matrix(0.05 0 0 0.05 -194 -126)"/><path fill="#fefefe" stroke="none" d="M 4132.42,2635.64 A 20.2383,20.2383 0 1 0 4172.89,2635.64A 20.2383,20.2383 0 1 0 4132.42,2635.64Z" transform="matrix(0.05 0 0 0.05 -194 -126)"/><path fill="none" stroke="#108080" stroke-width="12" d="M 4085.84,2698.41 A 129.586,129.586 0 1 0 4345.01,2698.41A 129.586,129.586 0 1 0 4085.84,2698.41Z" transform="matrix(0.05 0 0 0.05 -194 -126)"/></svg>

<svg height="19" viewBox="0 0 33 19" width="33" xmlns="http://www.w3.org/2000/svg"><g transform="matrix(.05 0 0 .05 -194 -126)"><path d="m3956.84 2849.93-25-54.55 283.62-103.37-.1 13.31z"/><path d="m3956.22 2625.68 22.55-55.6 10.65 5.75-21.55 53.15z"/><path d="m4005.94 2639.73 18.29-45.1 10.65 5.75-17.29 42.64z"/><path d="m4055.65 2653.78 14.04-34.61 10.65 5.75-13.04 32.15z"/><path d="m4105.37 2667.82 9.77-24.11 10.66 5.76-8.78 21.64z"/><path d="m4155.08 2681.87 5.52-13.61 10.65 5.75-4.52 11.15z"/><path d="m4452.08 2570.08 22.54 55.6-11.65 3.3-21.54-53.15z"/><path d="m4406.62 2594.63 18.29 45.1-11.65 3.29-17.29-42.64z"/><path d="m4361.16 2619.17 14.03 34.61-11.65 3.29-13.03-32.15z"/><path d="m4315.7 2643.71 9.77 24.11-11.64 3.29-8.78-21.64z"/><path d="m4270.24 2668.26 5.52 13.61-11.65 3.29-4.52-11.15z"/><path d="m4488.15 2795.59-25.89 54.13-246.9-144.4.1-13.31z"/><path d="m4085.84 2698.41a129.586 129.586 0 1 0 259.17 0 129.586 129.586 0 1 0 -259.17 0z" fill="#108080"/><path d="m4087.34 2696.38a126.059 126.059 0 1 0 252.12 0 126.059 126.059 0 1 0 -252.12 0z" fill="#1e8787"/><path d="m4088.84 2694.36a122.531 122.531 0 1 0 245.06 0 122.531 122.531 0 1 0 -245.06 0z" fill="#2c8f8f"/><path d="m4090.34 2692.34a119.004 119.004 0 1 0 238.01 0 119.004 119.004 0 1 0 -238.01 0z" fill="#3a9696"/><path d="m4091.85 2690.31a115.477 115.477 0 1 0 230.95 0 115.477 115.477 0 1 0 -230.95 0z" fill="#489d9d"/><path d="m4093.35 2688.29a111.949 111.949 0 1 0 223.9 0 111.949 111.949 0 1 0 -223.9 0z" fill="#54a4a4"/><path d="m4094.85 2686.26a108.422 108.422 0 1 0 216.85 0 108.422 108.422 0 1 0 -216.85 0z" fill="#61abab"/><path d="m4096.35 2684.24a104.895 104.895 0 1 0 209.79 0 104.895 104.895 0 1 0 -209.79 0z" fill="#6db1b1"/><path d="m4097.86 2682.21a101.367 101.367 0 1 0 202.73 0 101.367 101.367 0 1 0 -202.73 0z" fill="#78b7b7"/><path d="m4099.36 2680.19a97.84 97.84 0 1 0 195.68 0 97.84 97.84 0 1 0 -195.68 0z" fill="#83bdbd"/><path d="m4100.86 2678.16a94.313 94.313 0 1 0 188.63 0 94.313 94.313 0 1 0 -188.63 0z" fill="#8ec2c2"/><path d="m4102.36 2676.14a90.785 90.785 0 1 0 181.57 0 90.785 90.785 0 1 0 -181.57 0z" fill="#98c8c8"/><path d="m4103.87 2674.11a87.258 87.258 0 1 0 174.51 0 87.258 87.258 0 1 0 -174.51 0z" fill="#a1cdcd"/><path d="m4105.37 2672.09a83.731 83.731 0 1 0 167.46 0 83.731 83.731 0 1 0 -167.46 0z" fill="#aad2d2"/><path d="m4106.87 2670.06a80.203 80.203 0 1 0 160.41 0 80.203 80.203 0 1 0 -160.41 0z" fill="#b3d6d6"/><path d="m4108.37 2668.04a76.676 76.676 0 1 0 153.36 0 76.676 76.676 0 1 0 -153.36 0z" fill="#bbdbdb"/><path d="m4109.88 2666.01a73.148 73.148 0 1 0 146.29 0 73.148 73.148 0 1 0 -146.29 0z" fill="#c3dfdf"/><path d="m4111.38 2663.99a69.621 69.621 0 1 0 139.24 0 69.621 69.621 0 1 0 -139.24 0z" fill="#cae3e3"/><path d="m4112.88 2661.96a66.094 66.094 0 1 0 132.19 0 66.094 66.094 0 1 0 -132.19 0z" fill="#d1e6e6"/><path d="m4114.38 2659.94a62.566 62.566 0 1 0 125.14 0 62.566 62.566 0 1 0 -125.14 0z" fill="#d7eaea"/><path d="m4115.89 2657.91a59.039 59.039 0 1 0 118.08 0 59.039 59.039 0 1 0 -118.08 0z" fill="#ddeded"/><path d="m4117.39 2655.89a55.512 55.512 0 1 0 111.02 0 55.512 55.512 0 1 0 -111.02 0z" fill="#e2efef"/><path d="m4118.89 2653.86a51.984 51.984 0 1 0 103.97 0 51.984 51.984 0 1 0 -103.97 0z" fill="#e7f2f2"/><path d="m4120.39 2651.84a48.457 48.457 0 1 0 96.92 0 48.457 48.457 0 1 0 -96.92 0z" fill="#ecf4f4"/><path d="m4121.9 2649.81a44.93 44.93 0 1 0 89.86 0 44.93 44.93 0 1 0 -89.86 0z" fill="#f0f7f7"/><path d="m4123.4 2647.79a41.402 41.402 0 1 0 82.8 0 41.402 41.402 0 1 0 -82.8 0z" fill="#f3f8f8"/><path d="m4124.9 2645.77a37.875 37.875 0 1 0 75.75 0 37.875 37.875 0 1 0 -75.75 0z" fill="#f6fafa"/><path d="m4126.41 2643.74a34.348 34.348 0 1 0 68.69 0 34.348 34.348 0 1 0 -68.69 0z" fill="#f9fbfb"/><path d="m4127.91 2641.72a30.82 30.82 0 1 0 61.64 0 30.82 30.82 0 1 0 -61.64 0z" fill="#fbfdfd"/><path d="m4129.41 2639.69a27.293 27.293 0 1 0 54.59 0 27.293 27.293 0 1 0 -54.59 0z" fill="#fcfdfd"/><path d="m4130.91 2637.67a23.766 23.766 0 1 0 47.53 0 23.766 23.766 0 1 0 -47.53 0z" fill="#fefefe"/><path d="m4132.42 2635.64a20.238 20.238 0 1 0 40.47 0 20.238 20.238 0 1 0 -40.47 0z" fill="#fefefe"/><path d="m4085.84 2698.41a129.586 129.586 0 1 0 259.17 0 129.586 129.586 0 1 0 -259.17 0z" fill="none" stroke="#108080" stroke-width="12"/></g></svg>
